!!!OTL: SO VIEL DER MAI AUCH BLUEMLEIN BEUT
!!!ARE: Europa, Mitteleuropa, Deutschland
!!!SCT: B0190
!!!YEM: Copyright 1995, estate of Helmut Schaffrath.
**kern
*ICvox
*Ivox
*M3/4
*k[b-]
*F:
{8a
=1
4.a
8g
8a
8b-
=2
8.dd
16cc
4.cc}
{8a
=3
4.g
8a
8b-
8cc
=4
4b-
4a
8r}
{8a
=5
8.a
16b-
4.a
8a
=6
8.a
16b-
4.a}
{8a
=7
8.dd
16bn
4.g
8g
=8
8.g
16cc
4.cc}
{8b-
=9
4.a
8g
8a
8b-
=10
8.dd
16cc
4cc}
{8a
8f
=11
2g
8a
8b-
=12
2a}
{4c
=13
4.a
8g
8a
8b-
=14
8.cc
16dd
4cc}
{8a
8f
=15
2cc
8b-
8g
=16
2f
8r}
==
!!!AGN: Natur - Lied, Fruehling
!!!ONB: ESAC (Essen Associative Code) Database: BOEHME
!!!AMT: simple triple
!!!AIN: vox
!!!EED: Helmut Schaffrath
!!!EEV: 1.0
*-
